X:315
T:
R:polska
S:Efter »Florsen» i Burs.
O:Gotland, Burs
M:3/4
L:1/16
K:F
a3c' c'bag f4|A3c cBAG F4|A,2A,2 B,2B,2 C4|c2f2 fede g2f2|
A,2A,2 B,2B,2 C4|c2f2 fede g2f2|f2a2 ageg f2A2|cBAG G4 F4:|
|:L[AF]3c' c'2a2 a2f2|f2ef g2ag fedc|c3c' c'2a2 a2f2|f2ef ^fgag =fedc|
c^cde f2ef d2ef|g2ag fedc BAGF|FGAB cdef g2a2|abeg g4 f4:|

